;START_OF_HEADER
;HEADER_VERSION:0.1
;FLAVOR:Griffin
;GENERATOR.NAME:Cura_SteamEngine
;GENERATOR.VERSION:5.3.1
;GENERATOR.BUILD_DATE:2023-04-19
;TARGET_MACHINE.NAME:Ultimaker 3 Extended
;EXTRUDER_TRAIN.0.INITIAL_TEMPERATURE:270
;EXTRUDER_TRAIN.0.MATERIAL.VOLUME_USED:19018
;EXTRUDER_TRAIN.0.MATERIAL.GUID:e92b1f0b-a069-4969-86b4-30127cfb6f7b
;EXTRUDER_TRAIN.0.NOZZLE.DIAMETER:0.4
;EXTRUDER_TRAIN.0.NOZZLE.NAME:AA 0.4
;BUILD_PLATE.INITIAL_TEMPERATURE:107
;PRINT.TIME:23399
;PRINT.GROUPS:1
;PRINT.SIZE.MIN.X:9
;PRINT.SIZE.MIN.Y:6
;PRINT.SIZE.MIN.Z:0.2
;PRINT.SIZE.MAX.X:193.99
;PRINT.SIZE.MAX.Y:162.49
;PRINT.SIZE.MAX.Z:21
;SLICE_UUID:92ea05c5-6d44-4e80-bd53-52a59eaee83b
;END_OF_HEADER
;Generated with Cura_SteamEngine 5.3.1
T0
M82 ;absolute extrusion mode

G92 E0
M109 S270
G0 F15000 X9 Y6 Z2
G280
G1 F2100 E-8
;LAYER_COUNT:209
;LAYER:0
M107
M204 S1000
M205 X20 Y20
G1 F600 Z2.2
G0 F15000 X40.39 Y53.093 Z2.2
;TYPE:SKIRT
G1 F600 Z0.2
G1 F900 E0
G1 F750 X40.827 Y52.838 E0.00634
G1 X41.298 Y52.654 E0.01269
G1 X41.964 Y52.511 E0.02123
G1 X190.129 Y52.51 E1.87927
G1 X190.827 Y52.52 E1.88803
G1 X191.33 Y52.567 E1.89436
G1 X191.82 Y52.693 E1.90071
G1 X192.284 Y52.895 E1.90705
G1 X192.71 Y53.167 E1.91339
G1 X193.088 Y53.502 E1.91972
G1 X193.408 Y53.893 E1.92606
G1 X193.663 Y54.33 E1.93241
G1 X193.846 Y54.801 E1.93874
G1 X193.953 Y55.295 E1.94508
G1 X193.989 Y55.95 E1.95331
G1 X193.99 Y158.594 E3.2405
G1 X193.981 Y159.321 E3.24962
G1 X193.935 Y159.824 E3.25595
G1 X193.81 Y160.314 E3.26229
G1 X193.609 Y160.778 E3.26864
G1 X193.338 Y161.205 E3.27498
G1 X193.003 Y161.584 E3.28132
G1 X192.613 Y161.905 E3.28766
G1 X192.177 Y162.161 E3.294
G1 X191.706 Y162.344 E3.30033
G1 X191.212 Y162.452 E3.30667
G1 X190.55 Y162.489 E3.31499
G1 X42.876 Y162.49 E5.16688
G1 X42.178 Y162.481 E5.17563
G1 X41.674 Y162.434 E5.18198
G1 X41.184 Y162.309 E5.18832
G1 X40.72 Y162.108 E5.19466
G1 X40.294 Y161.837 E5.20099
G1 X39.915 Y161.502 E5.20733
G1 X39.594 Y161.111 E5.21368
G1 X39.339 Y160.675 E5.22001
G1 X39.155 Y160.204 E5.22635
G1 X39.011 Y159.539 E5.23489
G1 X39.01 Y56.341 E6.52903
G1 X39.019 Y55.676 E6.53737
G1 X39.066 Y55.172 E6.54372
G1 X39.192 Y54.683 E6.55005
G1 X39.393 Y54.219 E6.55639
G1 X39.664 Y53.792 E6.56273
G1 X39.999 Y53.414 E6.56907
G1 X40.39 Y53.093 E6.57541
M204 S429
G1 F2100 E-1.42459
G1 F600 Z2.2
;MESH:Environment_Monitor_Case-Case Lid.stl
G0 F15000 X126.12 Y102.908 Z2.2
;TYPE:WALL-OUTER
G1 F600 Z0.2
G1 F900 E6.57541
G1 F750 X125.424 Y102.802 E6.58512
G1 X124.425 Y102.518 E6.59945
G1 X123.735 Y102.151 E6.61023
G1 X122.851 Y101.526 E6.62516
G1 X122.144 Y100.707 E6.64009
G1 X121.599 Y99.791 E6.65479
G1 X121.248 Y98.883 E6.66822
G1 X121.092 Y97.879 E6.68224
G1 X121.094 Y72.105 E7.03777
G1 X121.2 Y71.415 E7.0474
G1 X121.385 Y70.77 E7.05666
G1 X121.374 Y70.751 E7.05696
G1 X121.858 Y69.721 E7.07266
G1 X122.46 Y68.863 E7.08712
G1 X123.3 Y68.138 E7.10242
G1 X124.209 Y67.599 E7.117
G1 X125.141 Y67.242 E7.13077
G1 X126.106 Y67.094 E7.14424
G1 X174.201 Y67.09 E7.80768
G1 X174.726 Y67.14 E7.81495
G1 X175.597 Y67.33 E7.82725
G1 X176.564 Y67.705 E7.84156
G1 X177.65 Y68.475 E7.85992
G1 X178.362 Y69.3 E7.87495
G1 X178.901 Y70.209 E7.88953
G1 X179.262 Y71.143 E7.90335
G1 X179.406 Y72.105 E7.91676
G1 X179.406 Y97.892 E8.27248
G1 X179.305 Y98.564 E8.28185
G1 X179.02 Y99.57 E8.29628
G1 X178.64 Y100.283 E8.30742
G1 X178.009 Y101.169 E8.32243
G1 X177.21 Y101.853 E8.33694
G1 X176.291 Y102.401 E8.3517
G1 X175.396 Y102.748 E8.36494
G1 X174.381 Y102.908 E8.37911
G1 X126.12 Y102.908 E9.04484
G0 F15000 X125.923 Y102.878
G1 F2100 E1.04484
G1 F600 Z2.2
G0 F15000 X126.107 Y147.906 Z2.2
G1 F600 Z0.2
G1 F900 E9.04484
G1 F750 X125.412 Y147.799 E9.05454
G1 X124.411 Y147.511 E9.06891
G1 X123.714 Y147.138 E9.07982
G1 X122.862 Y146.539 E9.09418
G1 X122.147 Y145.711 E9.10927
G1 X121.605 Y144.805 E9.12384
G1 X121.244 Y143.867 E9.1377
G1 X121.092 Y142.881 E9.15146
G1 X121.092 Y117.118 E9.50685
G1 X121.2 Y116.415 E9.51666
G1 X121.384 Y115.774 E9.52586
G1 X121.368 Y115.752 E9.52623
G1 X121.867 Y114.706 E9.54222
G1 X122.45 Y113.878 E9.55619
G1 X123.291 Y113.145 E9.57158
G1 X124.195 Y112.605 E9.58611
G1 X125.133 Y112.244 E9.59997
G1 X126.119 Y112.092 E9.61373
G1 X174.38 Y112.092 E10.27946
G1 X175.076 Y112.198 E10.28917
G1 X175.833 Y112.409 E10.30002
G1 X176.797 Y112.865 E10.31473
G1 X177.633 Y113.459 E10.32887
G1 X178.362 Y114.3 E10.34423
G1 X178.901 Y115.209 E10.3588
G1 X179.262 Y116.143 E10.37262
G1 X179.406 Y117.105 E10.38603
G1 X179.406 Y142.892 E10.74175
G1 X179.305 Y143.564 E10.75112
G1 X179.02 Y144.57 E10.76555
G1 X178.64 Y145.283 E10.77669
G1 X177.999 Y146.179 E10.79189
G1 X177.213 Y146.851 E10.80615
G1 X176.291 Y147.401 E10.82096
G1 X175.359 Y147.758 E10.83473
G1 X174.394 Y147.906 E10.8482
G1 X126.107 Y147.906 E11.51429
G0 F15000 X125.91 Y147.876
G1 F2100 E3.51429
G1 F600 Z2.2
G0 F15000 X106.894 Y147.906 Z2.2
G1 F600 Z0.2
G1 F900 E11.51429
G1 F750 X58.607 Y147.906 E12.18038
G1 X57.912 Y147.799 E12.19008
G1 X56.911 Y147.511 E12.20445
G1 X56.214 Y147.138 E12.21535
G1 X55.35 Y146.525 E12.22997
G1 X54.638 Y145.7 E12.245
G1 X54.099 Y144.791 E12.25958
G1 X53.742 Y143.859 E12.27334
G1 X53.594 Y142.894 E12.28681
G1 X53.594 Y117.105 E12.64256
G1 X53.7 Y116.415 E12.65219
G1 X53.884 Y115.773 E12.6614
G1 X53.873 Y115.756 E12.66168
G1 X54.367 Y114.706 E12.67768
G1 X54.961 Y113.863 E12.69191
G1 X55.801 Y113.138 E12.70722
G1 X56.694 Y112.606 E12.72155
G1 X57.618 Y112.248 E12.73522
G1 X58.62 Y112.092 E12.74921
G1 X106.701 Y112.09 E13.41246
G1 X107.233 Y112.141 E13.41983
G1 X108.08 Y112.324 E13.43179
G1 X109.054 Y112.7 E13.44619
G1 X110.138 Y113.461 E13.46446
G1 X110.855 Y114.291 E13.47959
G1 X111.401 Y115.209 E13.49432
G1 X111.764 Y116.15 E13.50824
G1 X111.908 Y117.117 E13.52172
G1 X111.908 Y142.88 E13.87711
G1 X111.803 Y143.572 E13.88676
G1 X111.518 Y144.575 E13.90115
G1 X111.14 Y145.283 E13.91222
G1 X110.504 Y146.174 E13.92732
G1 X109.713 Y146.851 E13.94168
G1 X108.791 Y147.401 E13.95649
G1 X107.859 Y147.758 E13.97026
G1 X106.894 Y147.906 E13.98372
G0 F15000 X106.694 Y147.906
G1 F2100 E5.98372
G1 F600 Z2.2
G0 F15000 X42.411 Y159.089 Z2.2
G1 F600 Z0.2
G1 F900 E13.98372
G1 F750 X190.59 Y159.09 E16.02777
G1 X190.59 Y55.91 E17.45107
G1 X42.411 Y55.911 E19.49511
G1 X42.411 Y159.089 E20.91839
M204 S1000
G0 F15000 X42.611 Y159.089
G0 X42.811 Y158.689
;TYPE:WALL-INNER
G1 F750 X190.19 Y158.69 E22.67417
G1 X190.19 Y56.31 E23.89386
G1 X42.811 Y56.311 E25.64964
G1 X42.811 Y158.689 E26.8693
G1 F2100 E18.8693
G1 F600 Z2.2
G0 F15000 X94.915 Y98.733 Z2.2
G1 F600 Z0.2
G1 F900 E26.8693
G1 F750 X94.422 Y98.749 E26.87518
G1 X93.634 Y98.529 E26.88493
G1 X93.023 Y97.929 E26.89513
G1 X92.768 Y97.406 E26.90206
G1 X92.702 Y96.715 E26.91033
G1 X92.743 Y96.432 E26.91374
G1 X92.994 Y95.811 E26.92172
G1 X72.458 Y95.81 E27.16637
G1 X72.714 Y96.301 E27.17297
G1 X72.796 Y96.883 E27.17997
G1 X72.774 Y97.146 E27.18311
G1 X72.555 Y97.851 E27.19191
G1 X71.877 Y98.515 E27.20321
G1 X71.215 Y98.733 E27.21152
G1 X70.722 Y98.749 E27.21739
G1 X69.935 Y98.529 E27.22713
G1 X69.278 Y97.89 E27.23805
G1 X69.064 Y97.345 E27.24502
G1 X68.988 Y96.568 E27.25432
G1 X69.294 Y95.811 E27.26405
G1 X68.653 Y95.809 E27.27169
G1 X68.382 Y95.723 E27.27507
G1 X68.048 Y95.399 E27.28062
G1 X67.941 Y95.035 E27.28514
G1 X67.944 Y74.873 E27.52533
G1 X68.019 Y74.645 E27.52819
G1 X68.33 Y74.309 E27.53365
G1 X68.661 Y74.189 E27.53784
G1 X69.306 Y74.189 E27.54553
G1 X69.066 Y73.685 E27.55218
G1 X68.989 Y72.881 E27.5618
G1 X69.304 Y72.086 E27.57199
G1 X69.917 Y71.489 E27.58218
G1 X70.638 Y71.254 E27.59121
G1 X71.365 Y71.291 E27.59989
G1 X72.185 Y71.699 E27.6108
G1 X72.695 Y72.466 E27.62177
G1 X72.815 Y73.316 E27.632
G1 X72.597 Y74.017 E27.64074
G1 X72.491 Y74.189 E27.64315
G1 X92.97 Y74.189 E27.88712
G1 X92.758 Y73.601 E27.89457
G1 X92.702 Y73.015 E27.90158
G1 X92.743 Y72.732 E27.90499
G1 X93.002 Y72.091 E27.91323
G1 X93.616 Y71.489 E27.92347
G1 X94.338 Y71.254 E27.93252
G1 X95.064 Y71.291 E27.94118
G1 X95.88 Y71.692 E27.95201
G1 X96.395 Y72.47 E27.96312
G1 X96.515 Y73.315 E27.97329
G1 X96.297 Y74.017 E27.98205
G1 X96.191 Y74.189 E27.98446
G1 X96.893 Y74.19 E27.99282
G1 X97.342 Y74.451 E27.99901
G1 X97.466 Y74.629 E28.00159
G1 X97.56 Y74.966 E28.00576
G1 X97.56 Y95.09 E28.2455
G1 X97.512 Y95.292 E28.24798
G1 X97.293 Y95.598 E28.25246
G1 X96.804 Y95.808 E28.2588
G1 X96.158 Y95.81 E28.2665
G1 X96.403 Y96.246 E28.27245
G1 X96.515 Y97.013 E28.28169
G1 X96.248 Y97.861 E28.29228
G1 X95.577 Y98.516 E28.30345
G1 X94.915 Y98.733 E28.31175
M204 S429
G0 F15000 X94.866 Y98.333
;TYPE:WALL-OUTER
G1 F750 X94.491 Y98.355 E28.31693
G1 X93.831 Y98.164 E28.32641
G1 X93.33 Y97.673 E28.33609
G1 X93.156 Y97.263 E28.34223
G1 X93.095 Y96.628 E28.35103
G1 X93.345 Y96.01 E28.36023
G1 X93.833 Y95.534 E28.36963
G1 F800.3 X94.365 Y95.388 E28.3768
G1 X93.856 Y95.41 E28.38343
G1 F750 X71.923 Y95.41 E28.68598
G1 F766.8 X71.258 Y95.396 E28.69497
G1 X71.906 Y95.702 E28.70466
G1 F750 X72.312 Y96.313 E28.71478
G1 X72.406 Y96.982 E28.7241
G1 X72.201 Y97.641 E28.73362
G1 X71.672 Y98.159 E28.74383
G1 X71.166 Y98.333 E28.75121
G1 X70.791 Y98.355 E28.75639
G1 X70.131 Y98.164 E28.76587
G1 X69.619 Y97.662 E28.77576
G1 X69.466 Y97.31 E28.78106
G1 X69.398 Y96.622 E28.79059
G1 X69.645 Y96.01 E28.7997
G1 X70.133 Y95.534 E28.8091
G1 F800.3 X70.665 Y95.388 E28.81627
G1 X70.156 Y95.41 E28.8229
G1 F750 X68.681 Y95.41 E28.84324
G1 X68.422 Y95.245 E28.84748
G1 X68.341 Y95.022 E28.85075
G1 X68.341 Y74.884 E29.12854
G1 X68.49 Y74.685 E29.13197
G1 X68.708 Y74.594 E29.13523
G1 X70.169 Y74.589 E29.15539
G1 F816.9 X70.78 Y74.62 E29.16319
G1 X70.139 Y74.473 E29.17158
G1 F750 X69.643 Y73.988 E29.18115
G1 X69.465 Y73.607 E29.18695
G1 X69.395 Y72.932 E29.19632
G1 X69.645 Y72.31 E29.20556
G1 X70.124 Y71.843 E29.21479
G1 X70.69 Y71.656 E29.22301
G1 X71.26 Y71.683 E29.23089
G1 X71.904 Y72.002 E29.2408
G1 X72.313 Y72.62 E29.25102
G1 X72.406 Y73.282 E29.26024
G1 X72.2 Y73.946 E29.26983
G1 X71.667 Y74.466 E29.28011
G1 F809.7 X71.11 Y74.616 E29.28753
G1 X71.647 Y74.589 E29.29444
G1 F750 X93.869 Y74.589 E29.60098
G1 F816.9 X94.48 Y74.62 E29.60879
G1 X93.839 Y74.473 E29.61718
G1 F750 X93.313 Y73.959 E29.62732
G1 X93.156 Y73.563 E29.6332
G1 X93.095 Y72.928 E29.642
G1 X93.35 Y72.305 E29.65129
G1 X93.824 Y71.843 E29.66042
G1 X94.39 Y71.656 E29.66864
G1 X94.96 Y71.683 E29.67651
G1 X95.606 Y72.003 E29.68646
G1 X96.01 Y72.611 E29.69653
G1 X96.104 Y73.289 E29.70597
G1 X95.9 Y73.946 E29.71546
G1 X95.367 Y74.466 E29.72573
G1 F809.7 X94.81 Y74.616 E29.73315
G1 X95.347 Y74.589 E29.74007
G1 F750 X96.845 Y74.593 E29.76073
G1 X97.083 Y74.762 E29.76476
G1 X97.16 Y74.99 E29.76808
G1 X97.157 Y95.09 E30.04534
G1 X97.013 Y95.312 E30.04899
G1 X96.767 Y95.41 E30.05265
G1 X95.623 Y95.41 E30.06843
G1 F766.8 X94.958 Y95.396 E30.07742
G1 X95.606 Y95.702 E30.08711
G1 F750 X96.01 Y96.31 E30.09718
G1 X96.105 Y96.976 E30.10646
G1 X95.9 Y97.644 E30.1161
G1 X95.372 Y98.159 E30.12627
G1 X94.866 Y98.333 E30.13365
G0 F15000 X94.666 Y98.344
G1 F2100 E22.13365
G1 F600 Z2.2
G0 F15000 X70.78 Y74.62 Z2.2
G1 F600 Z0.2
G1 F900 E30.13365
G1 F887.1 X71.11 Y74.616 E30.13755
G1 F2100 E22.13755
G0 F15000 X71.568 Y77.818
G0 X71.568 Y92.182
G0 X70.665 Y95.388
G1 F900 E30.13755
G1 F836.6 X71.217 Y95.395 E30.14445
G1 F2100 E22.14445
G0 F15000 X71.568 Y92.182
G0 X93.932 Y92.182
G0 X94.365 Y95.388
G1 F900 E30.14445
G1 F836.6 X94.917 Y95.395 E30.15134
G1 F2100 E22.15134
G0 F15000 X93.932 Y92.182
G0 X93.932 Y77.818
G0 X94.81 Y74.616
G1 F900 E30.15134
G1 F887.1 X94.48 Y74.62 E30.15524
M204 S1000
G1 F2100 E22.15524
G1 F600 Z2.2
G0 F15000 X126.085 Y103.306 Z2.2
;TYPE:WALL-INNER
G1 F600 Z0.2
G1 F900 E30.15524
G1 F750 X125.376 Y103.2 E30.16378
G1 X124.291 Y102.898 E30.1772
G1 X123.547 Y102.504 E30.18723
G1 X122.597 Y101.841 E30.20103
G1 X121.807 Y100.924 E30.21545
G1 X121.249 Y99.987 E30.22844
G1 X120.854 Y98.971 E30.24143
G1 X120.693 Y97.909 E30.25423
G1 X120.692 Y72.11 E30.56158
G1 X120.805 Y71.349 E30.57074
G1 X120.995 Y70.679 E30.57904
G1 X120.976 Y70.648 E30.57947
G1 X121.51 Y69.518 E30.59436
G1 X122.164 Y68.596 E30.60783
G1 X123.063 Y67.813 E30.62203
G1 X124.017 Y67.244 E30.63527
G1 X125.02 Y66.86 E30.64806
G1 X126.083 Y66.692 E30.66088
G1 X174.239 Y66.692 E31.23458
G1 X174.835 Y66.753 E31.24172
G1 X175.697 Y66.94 E31.25223
G1 X176.754 Y67.353 E31.26575
G1 X177.92 Y68.175 E31.28274
G1 X178.687 Y69.064 E31.29673
G1 X179.255 Y70.017 E31.30995
G1 X179.649 Y71.04 E31.32301
G1 X179.808 Y72.085 E31.3356
G1 X179.808 Y97.912 E31.64329
G1 X179.699 Y98.633 E31.65197
G1 X179.391 Y99.72 E31.66543
G1 X178.952 Y100.537 E31.67648
G1 X178.303 Y101.44 E31.68973
G1 X177.432 Y102.19 E31.70342
G1 X176.481 Y102.756 E31.71661
G1 X175.488 Y103.142 E31.7293
G1 X174.409 Y103.307 E31.7423
G1 X126.085 Y103.306 E32.318
G1 F2100 E24.318
G1 F600 Z2.2
G0 F15000 X126.085 Y148.308 Z2.2
G1 F600 Z0.2
G1 F900 E32.318
G1 F750 X125.303 Y148.184 E32.32744
G1 X124.281 Y147.891 E32.3401
G1 X123.547 Y147.504 E32.34999
G1 X122.592 Y146.832 E32.3639
G1 X121.812 Y145.936 E32.37805
G1 X121.235 Y144.957 E32.39159
G1 X120.858 Y143.983 E32.40403
G1 X120.693 Y142.909 E32.41698
G1 X120.692 Y117.084 E32.72464
G1 X120.805 Y116.349 E32.7335
G1 X120.991 Y115.694 E32.74161
G1 X121.026 Y115.54 E32.74349
G1 X121.51 Y114.518 E32.75696
G1 X122.159 Y113.597 E32.77039
G1 X123.065 Y112.812 E32.78467
G1 X124.022 Y112.244 E32.79793
G1 X125.016 Y111.858 E32.81063
G1 X126.091 Y111.693 E32.82359
G1 X174.415 Y111.694 E33.39929
G1 X175.16 Y111.807 E33.40827
G1 X175.989 Y112.038 E33.41852
G1 X176.988 Y112.51 E33.43168
G1 X177.92 Y113.175 E33.44532
G1 X178.687 Y114.064 E33.45931
G1 X179.255 Y115.017 E33.47253
G1 X179.649 Y116.04 E33.48559
G1 X179.808 Y117.085 E33.49818
G1 X179.808 Y142.912 E33.80586
G1 X179.699 Y143.633 E33.81455
G1 X179.391 Y144.72 E33.82801
G1 X178.993 Y145.471 E33.83814
G1 X178.313 Y146.429 E33.85213
G1 X177.435 Y147.187 E33.86595
G1 X176.483 Y147.756 E33.87916
G1 X175.48 Y148.14 E33.89196
G1 X174.417 Y148.308 E33.90478
G1 X126.085 Y148.308 E34.48058
G1 F2100 E26.48058
G1 F600 Z2.2
G0 F15000 X106.917 Y148.308 Z2.2
G1 F600 Z0.2
G1 F900 E34.48058
G1 F750 X58.585 Y148.308 E35.05637
G1 X57.803 Y148.184 E35.06581
G1 X56.781 Y147.891 E35.07847
G1 X56.047 Y147.504 E35.08836
G1 X55.081 Y146.826 E35.10242
G1 X54.313 Y145.936 E35.11642
G1 X53.744 Y144.983 E35.12964
G1 X53.36 Y143.98 E35.14244
G1 X53.192 Y142.917 E35.15526
G1 X53.192 Y117.085 E35.46301
G1 X53.299 Y116.38 E35.4715
G1 X53.543 Y115.504 E35.48233
G1 X54.01 Y114.518 E35.49533
G1 X54.667 Y113.593 E35.50885
G1 X55.567 Y112.813 E35.52304
G1 X56.516 Y112.245 E35.53621
G1 X57.53 Y111.854 E35.54916
G1 X58.588 Y111.693 E35.56191
G1 X106.712 Y111.69 E36.13523
G1 X107.283 Y111.744 E36.14206
G1 X108.19 Y111.94 E36.15312
G1 X109.261 Y112.352 E36.16679
G1 X110.403 Y113.159 E36.18345
G1 X111.188 Y114.064 E36.19772
G1 X111.756 Y115.017 E36.21093
G1 X112.154 Y116.061 E36.22425
G1 X112.307 Y117.09 E36.23664
G1 X112.306 Y142.915 E36.5443
G1 X112.185 Y143.693 E36.55368
G1 X111.897 Y144.71 E36.56627
G1 X111.493 Y145.471 E36.57654
G1 X110.812 Y146.436 E36.59061
G1 X109.934 Y147.188 E36.60438
G1 X108.983 Y147.756 E36.61758
G1 X107.98 Y148.14 E36.63037
G1 X106.917 Y148.308 E36.64319
G0 F15000 X106.945 Y148.586
;TYPE:SKIN
G1 F750 X58.558 Y148.586 E37.162
G1 X57.763 Y148.465 E37.17062
G1 X56.699 Y148.16 E37.18249
G1 X55.859 Y147.719 E37.19266
G1 X54.89 Y147.035 E37.20538
G1 X54.097 Y146.111 E37.21843
G1 X53.486 Y145.093 E37.23116
G1 X53.08 Y144.036 E37.24331
G1 X52.914 Y142.944 E37.25515
G1 X52.914 Y117.052 E37.53276
G1 X53.025 Y116.327 E37.54063
G1 X53.214 Y115.64 E37.54827
G1 X53.243 Y115.489 E37.54992
G1 X53.758 Y114.393 E37.5629
G1 X54.45 Y113.406 E37.57582
G1 X55.405 Y112.58 E37.58936
G1 X56.391 Y111.991 E37.60168
G1 X57.429 Y111.589 E37.61361
G1 X58.598 Y111.412 E37.62629
G1 X106.736 Y111.41 E38.14242
G1 X107.317 Y111.465 E38.14868
G1 X108.266 Y111.67 E38.15909
G1 X109.381 Y112.099 E38.1719
G1 X110.583 Y112.945 E38.18766
G1 X111.411 Y113.894 E38.20117
G1 X112.011 Y114.9 E38.21372
G1 X112.425 Y115.973 E38.22606
G1 X112.586 Y117.056 E38.2378
G1 X112.586 Y142.937 E38.51529
